X:246
T: BEI SEDAN AUF DEN HOEHEN
N: E1386
O: Europa, Mitteleuropa, Deutschland, Hessen, Nassau
R: Staende -, Soldaten -, Kriegs - Lied
M: 3/4
L: 1/8
K: Bb
F2 | B2F2FF | G2G2
B2 | A3EGG | F2z2
F2 | d2c2BB | B2G2
e2 | ddc2c2 | B4

@@@ Tune index: 4930
